src/assets/images/otp-logo-bottom.svg

<svg width="504" height="252" fill="none" xmlns="http://www.w3.org/2000/svg"><path fill-rule="evenodd" clip-rule="evenodd" d="M140.836 251.99c0 61.742 50.051 111.77 111.791 111.77 61.721 0 111.757-50.028 111.757-111.77 0-61.726-50.036-111.791-111.778-111.791-61.719 0-111.77 50.065-111.77 111.791zm272.102-.603c0 90.169-72.588 161.552-160.949 161.552-88.865 0-160.92-72.049-160.92-160.949 0-88.787 71.899-160.772 160.636-160.934V0C112.677.155 0 112.919 0 251.99c0 139.184 112.818 252.004 251.989 252.004C391.174 503.994 504 391.174 504 251.451l-91.062-.064zm-18.731-76.918c35.376 0 64.053-28.683 64.053-64.06 0-35.376-28.677-64.086-64.053-64.086-35.375 0-64.073 28.71-64.073 64.086 0 35.377 28.698 64.06 64.073 64.06z" fill="url(#paint0_linear)" fill-opacity=".7"/><defs><linearGradient id="paint0_linear" x1="357.538" y1="39.307" x2="115.235" y2="445.844" gradientUnits="userSpaceOnUse"><stop stop-color="#AFCB35"/><stop offset="1" stop-color="#52AE30"/></linearGradient></defs></svg>

<svg width="504" height="252" viewBox="0 0 504 252" fill="none" xmlns="http://www.w3.org/2000/svg">
<path fill-rule="evenodd" clip-rule="evenodd" d="M140.836 251.99C140.836 313.732 190.887 363.76 252.627 363.76C314.348 363.76 364.384 313.732 364.384 251.99C364.384 190.264 314.348 140.199 252.606 140.199C190.887 140.199 140.836 190.264 140.836 251.99ZM412.938 251.387C412.938 341.556 340.35 412.939 251.989 412.939C163.124 412.939 91.0686 340.89 91.0686 251.99C91.0686 163.203 162.968 91.218 251.705 91.0556V0C112.677 0.155216 0 112.919 0 251.99C0 391.174 112.818 503.994 251.989 503.994C391.174 503.994 504 391.174 504 251.451L412.938 251.387ZM394.207 174.469C429.583 174.469 458.26 145.786 458.26 110.409C458.26 75.033 429.583 46.323 394.207 46.323C358.832 46.323 330.134 75.033 330.134 110.409C330.134 145.786 358.832 174.469 394.207 174.469Z" fill="url(#paint0_linear)" fill-opacity="0.7"/>
<defs>
<linearGradient id="paint0_linear" x1="357.538" y1="39.3072" x2="115.235" y2="445.844" gradientUnits="userSpaceOnUse">
<stop stop-color="#AFCB35"/>
<stop offset="1" stop-color="#52AE30"/>
</linearGradient>
</defs>
</svg>
